icons/svg/text-position-middle.svg

<svg width="24" height="24" viewBox="0 0 24 24" fill="none" xmlns="http://www.w3.org/2000/svg">
<path d="M12 2.75V8.7865V8.83577M9.08099 6.33098L11.2929 8.54288C11.4882 8.73815 11.7441 8.83578 12 8.83577M14.919 6.33098L12.7071 8.54288C12.5118 8.73814 12.2559 8.83577 12 8.83577" stroke="currentColor" stroke-width="1.5" stroke-linecap="round" stroke-linejoin="round"/>
<path d="M12 21.2501V15.2136V15.1643M9.08099 17.6691L11.2929 15.4572C11.4882 15.2619 11.7441 15.1643 12 15.1643M14.919 17.6691L12.7071 15.4572C12.5118 15.2619 12.2559 15.1643 12 15.1643" stroke="currentColor" stroke-width="1.5" stroke-linecap="round" stroke-linejoin="round"/>
<path d="M2.75 12H21.25" stroke="currentColor" stroke-width="1.5" stroke-linecap="round" stroke-linejoin="round"/>
</svg>

<svg xmlns="http://www.w3.org/2000/svg" width="24" height="24" fill="none" viewBox="0 0 24 24"><path stroke="currentColor" stroke-linecap="round" stroke-linejoin="round" stroke-width="1.5" d="M12 2.75v6.086M9.081 6.33l2.212 2.212a1 1 0 0 0 .707.293m2.919-2.505-2.212 2.212a1 1 0 0 1-.707.293m0 12.415v-6.086M9.081 17.67l2.212-2.212a1 1 0 0 1 .707-.293m2.919 2.505-2.212-2.212a1 1 0 0 0-.707-.293M2.75 12h18.5"/></svg>
